X:26
T:Red Lion Hornpipe
S:John Moore's Book 2
Z:Transcribed by Taz Tarry 04/2021
%%VWML: Moore1-4494-p24-1
F:http://www.vwml.org/record/Moore2/4494/p24
M:3/2
L:1/8
K:Bb
BdBd DEFD E2 C2|BdBd FBAc B2C2|BdBd DEFD E2 gf|edcB FBAcB2 B,2:|
Bdfd BdcB A2 F2|DFBF GFGE D2 B,2|Bdfd BdcB A2 F2|DFBD CBAc B4:|

